img/logos/haskell.svg

<?xml version="1.0" encoding="UTF-8" standalone="no"?>
<svg width="256px" height="181px" viewBox="0 0 256 181" version="1.1" xmlns="http://www.w3.org/2000/svg" xmlns:xlink="http://www.w3.org/1999/xlink" preserveAspectRatio="xMinYMin meet">
	<g>
		<path d="M0,180.6639 L60.2219918,90.3319502 L0,0 L45.1659748,0 L105.387967,90.3319502 L45.1659748,180.6639 L0,180.6639 L0,180.6639 Z" fill="#F97E2F"></path>
		<path d="M60.2219918,180.6639 L120.443984,90.3319502 L60.2219918,0 L105.387967,0 L225.829875,180.6639 L180.6639,180.6639 L143.026971,124.207469 L105.387967,180.6639 L60.2219918,180.6639 L60.2219918,180.6639 Z" fill="#95653A"></path>
		<path d="M205.757262,127.970954 L185.684647,97.8609957 L255.941909,97.8589212 L255.941909,127.970954 L205.757262,127.970954 L205.757262,127.970954 Z" fill="#F97E2F"></path>
		<path d="M175.647303,82.8049793 L155.572614,52.6950209 L255.941909,52.6929463 L255.941909,82.8049793 L175.647303,82.8049793 L175.647303,82.8049793 Z" fill="#F97E2F"></path>
	</g>
</svg>

<svg width="256" height="181" viewBox="0 0 256 181" xmlns="http://www.w3.org/2000/svg" preserveAspectRatio="xMinYMin meet"><path d="M0 180.664l60.222-90.332L0 0h45.166l60.222 90.332-60.222 90.332H0z" fill="#F97E2F"/><path d="M60.222 180.664l60.222-90.332L60.222 0h45.166L225.83 180.664h-45.166l-37.637-56.457-37.64 56.457H60.223z" fill="#95653A"/><path d="M205.757 127.97l-20.072-30.11h70.257v30.11h-50.185zM175.647 82.805l-20.074-30.11 100.37-.002v30.112h-80.296z" fill="#F97E2F"/></svg>
